X: 43130
T: Wink And She'll Follow You
R: slip jig
M: 9/8
K: Dmixolydian
|:E|D2 A ABG ABc|EE/E/E AGE G2 E|D2 A ABG ABc|1 BAG AGE G2:|2 BAG AGE GED||
cBc e2 c ABc|B2 B dBG GAB|cGc e2 c ABc|BAG AA/G/E GED|
cBc e2 c ABc|BB/B/B dBG GB/c/d|gag gdB AdB|[M:12/8] cBA BAG AGE G2||

